X:147
T:The Buttonhole
C:c. 1774
S:Colin Hume's website,  colinhume.com  - chords can also be printed below the stave.
N:For the dance "The Rose of Rochester" by A. Simons
Q:3/8=120
M:6/8
R:Jig
L:1/8
K:D
P:A
|: "D"A2A ABc | "D"d2A FGA | "G"B2G "A7"EFG | "D"A2F D3 |\
"D"A2A "A"ABc | "Bm"dcd "E7"Bcd | "A"ecA "E7"EF^G | "A"A2A A3 :|
P:B
|: "D"a2a afd | "G"Bcd "Em"efg | "A7"g2g gec | "D"ABc "Bm"def |\
"D"A2A AGF | "Em"BGE EFG | "D"AFD "A7"DEC | "D"D2D D3 :|

